X: 1
T: The Maid Behind The Bar
R: reel
M: 4/4
L: 1/8
%Z: Modified by Megan Ward
K: D
FAAB AFED|FAAB ABde|fBBA Bcde|~f2gf edBA|
FAAB AFED|FAAB ABde|fBBA BcdB|AFEF D4:|
|:faag fdde|fdad fd ~d2|efga beef|gebe ge~e2|
fgaf bfaf|defd e2 de|fBBA BcdB|AFEF D4:|
